X:1
T:The Nightingale (Wreck)
M:3/4
L:1/8
K:G
 D| G3/2 A/2 B3 B| A3.99999962500005/5.99999925000009 G3.99999962500005/5.99999925000009 E3.99999962500005/5.99999925000009 D3 D/2D/2|\
 GAB B2 z/2 G/2| F3/2 G/2 A3 d| e3/2 d/2 G2 GG| AG D2 Bc| dd d2 d3/2 c/2|\
 BA G2||
